Interior Design/images/main/logo.svg

<svg width="63" height="84" viewBox="0 0 63 84" fill="none" xmlns="http://www.w3.org/2000/svg">
<path d="M0 0L30.5 25.6667L61 0L49.6044 40.3333L61 56L30.5 37.6667L0 56L13.7418 22.6667L0 0Z" fill="#C7A265"/>
<path d="M8 8L30.5 26.7917L53 8L44.5934 37.5298L53 49L30.5 35.5774L8 49L18.1374 24.5952L8 8Z" fill="#444444"/>
<path d="M13.2 79C12.656 78.088 12.048 77.112 11.376 76.072C10.704 75.016 10.008 73.96 9.288 72.904C8.568 71.832 7.832 70.8 7.08 69.808C6.344 68.8 5.64 67.896 4.968 67.096V79H1.992V62.368H4.464C5.104 63.04 5.792 63.84 6.528 64.768C7.264 65.68 8 66.632 8.736 67.624C9.488 68.616 10.208 69.616 10.896 70.624C11.6 71.616 12.224 72.544 12.768 73.408V62.368H15.768V79H13.2ZM30.9656 72.712C30.9656 73.704 30.8216 74.608 30.5336 75.424C30.2456 76.24 29.8376 76.936 29.3096 77.512C28.7816 78.088 28.1416 78.536 27.3896 78.856C26.6536 79.176 25.8376 79.336 24.9416 79.336C24.0456 79.336 23.2296 79.176 22.4936 78.856C21.7576 78.536 21.1256 78.088 20.5976 77.512C20.0696 76.936 19.6536 76.24 19.3496 75.424C19.0616 74.608 18.9176 73.704 18.9176 72.712C18.9176 71.72 19.0616 70.824 19.3496 70.024C19.6536 69.208 20.0696 68.512 20.5976 67.936C21.1416 67.36 21.7816 66.92 22.5176 66.616C23.2536 66.296 24.0616 66.136 24.9416 66.136C25.8216 66.136 26.6296 66.296 27.3656 66.616C28.1176 66.92 28.7576 67.36 29.2856 67.936C29.8136 68.512 30.2216 69.208 30.5096 70.024C30.8136 70.824 30.9656 71.72 30.9656 72.712ZM27.9896 72.712C27.9896 71.464 27.7176 70.48 27.1736 69.76C26.6456 69.024 25.9016 68.656 24.9416 68.656C23.9816 68.656 23.2296 69.024 22.6856 69.76C22.1576 70.48 21.8936 71.464 21.8936 72.712C21.8936 73.976 22.1576 74.976 22.6856 75.712C23.2296 76.448 23.9816 76.816 24.9416 76.816C25.9016 76.816 26.6456 76.448 27.1736 75.712C27.7176 74.976 27.9896 73.976 27.9896 72.712ZM41.1094 69.064C40.8694 68.984 40.5334 68.904 40.1014 68.824C39.6854 68.728 39.1974 68.68 38.6374 68.68C38.3174 68.68 37.9734 68.712 37.6054 68.776C37.2534 68.84 37.0054 68.896 36.8614 68.944V79H33.9574V67.048C34.5174 66.84 35.2134 66.648 36.0454 66.472C36.8934 66.28 37.8294 66.184 38.8534 66.184C39.0454 66.184 39.2694 66.2 39.5254 66.232C39.7814 66.248 40.0374 66.28 40.2934 66.328C40.5494 66.36 40.7974 66.408 41.0374 66.472C41.2774 66.52 41.4694 66.568 41.6134 66.616L41.1094 69.064ZM50.7891 72.4C50.7891 71.088 50.6211 70.144 50.2851 69.568C49.9651 68.976 49.3571 68.68 48.4611 68.68C48.1411 68.68 47.7891 68.704 47.4051 68.752C47.0211 68.8 46.7331 68.84 46.5411 68.872V79H43.6371V66.856C44.1971 66.696 44.9251 66.544 45.8211 66.4C46.7331 66.256 47.6931 66.184 48.7011 66.184C49.5651 66.184 50.2691 66.296 50.8131 66.52C51.3731 66.744 51.8371 67.04 52.2051 67.408C52.3811 67.28 52.6051 67.144 52.8771 67C53.1491 66.856 53.4531 66.728 53.7891 66.616C54.1251 66.488 54.4771 66.384 54.8451 66.304C55.2291 66.224 55.6131 66.184 55.9971 66.184C56.9731 66.184 57.7731 66.328 58.3971 66.616C59.0371 66.888 59.5331 67.28 59.8851 67.792C60.2531 68.288 60.5011 68.896 60.6291 69.616C60.7731 70.32 60.8451 71.096 60.8451 71.944V79H57.9411V72.4C57.9411 71.088 57.7811 70.144 57.4611 69.568C57.1411 68.976 56.5251 68.68 55.6131 68.68C55.1491 68.68 54.7091 68.76 54.2931 68.92C53.8771 69.064 53.5651 69.208 53.3571 69.352C53.4851 69.752 53.5731 70.176 53.6211 70.624C53.6691 71.072 53.6931 71.552 53.6931 72.064V79H50.7891V72.4Z" fill="white"/>
</svg>

<svg width="63" height="84" fill="none" xmlns="http://www.w3.org/2000/svg"><path d="M0 0l30.5 25.667L61 0 49.604 40.333 61 56 30.5 37.667 0 56l13.742-33.333L0 0z" fill="#C7A265"/><path d="M8 8l22.5 18.792L53 8l-8.407 29.53L53 49 30.5 35.577 8 49l10.137-24.405L8 8z" fill="#444"/><path d="M13.2 79a96.7 96.7 0 00-1.824-2.928 119.737 119.737 0 00-2.088-3.168 66.489 66.489 0 00-2.208-3.096 50.861 50.861 0 00-2.112-2.712V79H1.992V62.368h2.472c.64.672 1.328 1.472 2.064 2.4a88.772 88.772 0 012.208 2.856 74.335 74.335 0 012.16 3c.704.992 1.328 1.92 1.872 2.784v-11.04h3V79H13.2zm17.766-6.288c0 .992-.144 1.896-.432 2.712-.288.816-.696 1.512-1.224 2.088a5.477 5.477 0 01-1.92 1.344c-.736.32-1.552.48-2.448.48-.896 0-1.712-.16-2.448-.48a5.531 5.531 0 01-1.896-1.344c-.528-.576-.944-1.272-1.248-2.088-.288-.816-.432-1.72-.432-2.712 0-.992.144-1.888.432-2.688.304-.816.72-1.512 1.248-2.088a5.498 5.498 0 011.92-1.32c.736-.32 1.544-.48 2.424-.48.88 0 1.688.16 2.424.48a5.22 5.22 0 011.92 1.32c.528.576.936 1.272 1.224 2.088.304.8.456 1.696.456 2.688zm-2.976 0c0-1.248-.272-2.232-.816-2.952-.528-.736-1.272-1.104-2.232-1.104-.96 0-1.712.368-2.256 1.104-.528.72-.792 1.704-.792 2.952 0 1.264.264 2.264.792 3 .544.736 1.296 1.104 2.256 1.104.96 0 1.704-.368 2.232-1.104.544-.736.816-1.736.816-3zm13.12-3.648a7.91 7.91 0 00-1.009-.24 6.57 6.57 0 00-2.496-.048c-.352.064-.6.12-.744.168V79h-2.904V67.048c.56-.208 1.256-.4 2.088-.576a12.728 12.728 0 012.808-.288c.192 0 .416.016.672.048.256.016.512.048.768.096.256.032.504.08.744.144.24.048.432.096.576.144l-.504 2.448zm9.68 3.336c0-1.312-.169-2.256-.505-2.832-.32-.592-.928-.888-1.824-.888-.32 0-.672.024-1.056.072-.384.048-.672.088-.864.12V79h-2.904V66.856c.56-.16 1.288-.312 2.184-.456a18.46 18.46 0 012.88-.216c.864 0 1.568.112 2.112.336.56.224 1.024.52 1.392.888a6.01 6.01 0 011.584-.792 7.344 7.344 0 011.056-.312c.384-.08.768-.12 1.152-.12.976 0 1.776.144 2.4.432.64.272 1.136.664 1.488 1.176.368.496.616 1.104.744 1.824.144.704.216 1.48.216 2.328V79h-2.904v-6.6c0-1.312-.16-2.256-.48-2.832-.32-.592-.936-.888-1.848-.888-.464 0-.904.08-1.32.24-.416.144-.728.288-.936.432.128.4.216.824.264 1.272.048.448.072.928.072 1.44V79H50.79v-6.6z" fill="#fff"/></svg>
